X: 33409
T: Quille's
R: reel
M: 4/4
K: Dmajor
|:D2FA BAF2|d2cd BEE2|D2FA BAFA|dBAF EDD2:|
d2fd d2fd|g2fg eBBA|d2fd d2fd|faeg fdd2|
d2fd d2fd|g2fg eBBA|g2fe dedB|ABAG FAd2|

